X:1
T:Mr. Thomas Burt
T:Mr. Thomas Burt
T:Carl Volti
C:Carl Volti
L:1/8
M:4/4
K:A
V:1 treble 
V:1
 A2 (Ac) BAFG | A2 (Ac) efga | A2 (Ac) BAFA | EFAc B2 A2 :| e2 (ae) fecd | e2 (ae) f2 e2 | %6
 e2 (ae) fecA | EFAc B2 A2 | e2 (ae) fecd | e2 (ea) f2 e2 | aefd ecBA | EFAc B2 A2 || %12

